X: 82
T:Minuet,A. JaW.082
M:3/4
L:1/8
Q:1/4=90
S:James Winder Ms, Lancashire, 1835-41
R:Minuet
O:England
A:Wyresdale,Lancashire
H:1/8
Z:vmp.Chris Partington, Aug 2004
K:G
GFG2B2|GFG2d2|GFG2B2|c4A2|!
GFG2d2|GFG2c2|B2A4|G6:|!
|:dcd2ad|d2cBc2|cBc2ac|c2BAB2|!
GDADBD|c2BAf2|gGA4|G6:|]
